symbols/web/border_outer/materialsymbolsoutlined/border_outer_wght100grad200_40px.svg

<svg xmlns="http://www.w3.org/2000/svg" height="40" width="40"><path d="M5.208 34.792v-29.5h29.5v29.5Zm2.25-2.25H32.5V7.5H7.458Zm4.584-11.417v-2.208h2.25v2.208Zm6.833 6.833v-2.25h2.208v2.25Zm0-6.833v-2.208h2.208v2.208Zm0-6.833v-2.209h2.208v2.209Zm6.833 6.833v-2.208h2.209v2.208Z"/></svg>

<svg xmlns="http://www.w3.org/2000/svg" height="40" width="40"><path d="M18.875 14.292V12.083H21.083V14.292ZM18.875 21.125V18.917H21.083V21.125ZM25.708 21.125V18.917H27.917V21.125ZM5.208 34.792V5.292H34.708V34.792ZM7.458 32.542H32.5V7.5H7.458ZM18.875 27.958V25.708H21.083V27.958ZM12.042 21.125V18.917H14.292V21.125Z"/></svg>
